X: 32589
T: Planxty M
R: jig
M: 6/8
K: Gmajor
|:BFG ABc|dBc A3|eAd BAG|FdB G3|
EEF GGA|BcA F3|FGA ABc|FdB G3:|
|:dcB dcB|dcA F3|EFA cAF|GBA G3|
dcB BAG|FAd D3|EAB cAF|FdB G3:|

